!!!COM: Jules Massenet
!!!CNT: Francais
!!!TXO: Francais
!!!OTL: Un souffle de parfums
!!!LYR: Armand Silvestre
!!!OPR: Poe2me du Souvenir
!!!ONM: No. 3
!!!ENC: Jacob Pegg
!!!YOR: Romantic French Song 1830-1870 - David Tunley, ed.,
!!!YOR: New York: Garland Publishing, Inc., 1995, Vol. 6
!!!ODT: 1868/
!!NB: Vocal melody and text only encoded.
!!NB: First instance of melodic material only encoded.
**kern	**silbe
*clef G2	*
*k[f#c#g#d#]	*
*M6/8	*
!!created: 12/14/03 14:18
!!proofed and posted: 12/14/03 20:26
!!edit time: 70 min.
=1	=1
2.r	.
=2	=2
4r	.
8r	.
{4.b	{Un
=3	=3
4ee	souf-
8b	-fle
(8b	de-
8cc#)	|
8b	par-
=4	=4
(8g#	-fums
8a)	|
8g#	s'e/-
4.b	-le\-
=5	=5
8e}	-ve}
{8e	{Des
8f#	tail-
4g#	-lis
8cc#	pro-
=6	=6
[4.b	-fonds,
8b]	|
8g#	ou\
8b	son
=7	=7
(4.dd#	re^-
4.cc#	|
=8	=8
2.b)}	-ve}
=9	=9
4r	.
{8b	{Sui-
4b	-vait
8b	le
=10	=10
([2.ccn	vol
=11	=11
8ccn]	|
8ddn)	|
8ee	d'un
4ff#	long
8ddn	es-
=12	=12
(2.ee	-poir;
=13	=13
2.ddn)}	|}
=14	=14
2.r	.
=15	=15
4r	.
8r	.
{4cc#	{Me
8cc#	vient~
=16	=16
[2.ee	~il
=17	=17
4.ee]	|
4gn	de
8gn	sa
=18	=18
[4.b	le\vre,
4b]	|
8b	a-
=19	=19
(2.ddn	-mi-
=20	=20
[4.b)	-e?
4b]}	|}
8r	.
=21	=21
2.r	.
=22	=22
4r	.
4r	.
4r	.
=23	=23
2.b	Non!
=24	=24
4r	.
8r	.
{4.b	{Ce
=25	=25
4.ccn	sont
4.a	les
=26	=26
(4.f#	fleurs
8.a	que
8.ccn	le
=27	=27
[2.ee	soir
=28	=28
2.ee]}	|}
=29	=29
{[2.b	{Me^-
=30	=30
4b])	-le
8b	a\
(8b	la
8ccn)	|
8b	bruy-
=31	=31
8gn	-e\re
8a	en-
8gn	-dor-
[4.b	-mi-
=32	=32
2.b_	|
=33	=33
(2.b]	|
=34	=34
[2.e)	-e.
=35	=35
4e]}	|}
8r	.
4r	.
8r	.
=36	=36
2.r	.
=37	=37
4r	.
4r	.
4r	.
=38	=38
*k[b-e-a-]	*
4r	.
8r	.
{8b-	{U-
8b-	-ne
8b-	mu-
=39	=39
4ee-	-si-
8b-	-que
(8b-	douce
8cc)	|
8b-	et
=40	=40
(8g	fre\-
8a-)	|
8g}	-le}
{4b-	{Sur
8b-	mes
=41	=41
(4e-	pas
8f)	|
(4g	mur-
8cc)	|
=42	=42
[4.b-	-mu-
8b-]	|
8g	-re
8b-	pour
=43	=43
(4.dd	El-
4.cc	|
=44	=44
2.b-)}	-le}
=45	=45
4r	.
8r	.
{4.b-	{L'a-
=46	=46
[4.cc-	-dieu
4cc-]	|
8cc-	a\
=47	=47
(8cc-	tout
8dd-)	|
8ee-	ce
4ff	qu'el-
8dd-	-le
=48	=48
(2.ee-	fuit;
=49	=49
2.dd-)}	|}
=50	=50
2.r	.
=51	=51
4r	.
8r	.
4r	.
{8cc#	{Mon
=52	=52
[2.een	Dieu!
=53	=53
4een]	|
8g	j'en-
4g	-tends
8g	sa
=54	=54
[4.bn	voix
4bn]	|
8bn	dans
=55	=55
2.ddn	l'om-
=56	=56
[4.bn	-bre!
4bn]}	|}
8r	.
!!57-72 repeat material
=73	=73
*M3/4	*
*k[f#c#g#d#]	*
{(4ee	{Nuit
4b)	|
4g#	au-
=74	=74
2cc#	-gus-
4cc#	-te,
=75	=75
4dd#	bois
4b	so-
4a	-li-
=76	=76
4g#	-tai-
2g#}	-re,}
=77	=77
{2b	{Qui
4cc#	voi-
=78	=78
8f#	-lez
8g#	d'un
(8a	dou-
8b)	|
8cc#	-ble
8dd#	mys-
=79	=79
2.ee	-te\-
=80	=80
2dd#}	-re}
4r	.
=81	=81
{(4ee	{Le
4b)	|
4g#	se-
=82	=82
2cc#	-cret
8cc#	des
8cc#	bon-
=83	=83
2cc#	-heurs
4a#	pas-
=84	=84
2.dd#}	-se/s,}
!!85-90 repeat material
=91	=91
*M6/8	*
4r	.
8r	.
{4b	{Et
8b	la
=92	=92
[2.an	voix
=93	=93
8an]	|
8b	de
8cc#	la
4dd#	Bien~
8b	~ai-
=94	=94
(2.cc#	-me/-
=95	=95
4b)}	-e!}
8r	.
4r	.
{8b	{la
=96	=96
[2.cc#	voix
=97	=97
8cc#]	|
8dd#	de
8ee	la
4ff#	Bien~
8dd#	~ai-
=98	=98
[2.ff#	-me/-
=99	=99
2.ff#]	|
=100	=100
[2.ee	-e!
=101	=101
2.ee_	|
=102	=102
4ee]}	|}
8r	.
4r	.
8r	.
*-	*-
